svgs/regular/cubes-stacked.svg

<svg xmlns="http://www.w3.org/2000/svg" viewBox="0 0 448 512"><!--! Font Awesome Pro 6.5.1 by @fontawesome - https://fontawesome.com License - https://fontawesome.com/license (Commercial License) Copyright 2023 Fonticons, Inc. --><path d="M240 80v32h32V80H240zM224 32h64c17.7 0 32 14.3 32 32v64c0 17.7-14.3 32-32 32H224c-17.7 0-32-14.3-32-32V64c0-17.7 14.3-32 32-32zM136.5 268.2l27.7-16-16-27.7-27.7 16 16 27.7zM71 250.7c-8.8-15.3-3.6-34.9 11.7-43.7l55.4-32c15.3-8.8 34.9-3.6 43.7 11.7l32 55.4c8.8 15.3 3.6 34.9-11.7 43.7l-55.4 32c-15.3 8.8-34.9 3.6-43.7-11.7L71 250.7zM304 272h32V240H304v32zm-48-48c0-17.7 14.3-32 32-32h64c17.7 0 32 14.3 32 32v64c0 17.7-14.3 32-32 32H288c-17.7 0-32-14.3-32-32V224zM368 432h32V400H368v32zm-48-48c0-17.7 14.3-32 32-32h64c17.7 0 32 14.3 32 32v64c0 17.7-14.3 32-32 32H352c-17.7 0-32-14.3-32-32V384zM208 400v32h32V400H208zm-16-48h64c17.7 0 32 14.3 32 32v64c0 17.7-14.3 32-32 32H192c-17.7 0-32-14.3-32-32V384c0-17.7 14.3-32 32-32zM48 432H80V400H48v32zM0 384c0-17.7 14.3-32 32-32H96c17.7 0 32 14.3 32 32v64c0 17.7-14.3 32-32 32H32c-17.7 0-32-14.3-32-32V384z"/></svg>

<svg xmlns="http://www.w3.org/2000/svg" viewBox="0 0 448 512"><!--! Font Awesome Pro 6.1.1 by @fontawesome - https://fontawesome.com License - https://fontawesome.com/license (Commercial License) Copyright 2022 Fonticons, Inc. --><path d="M288 32C305.7 32 320 46.33 320 64V128C320 145.7 305.7 160 288 160H224C206.3 160 192 145.7 192 128V64C192 46.33 206.3 32 224 32H288zM240 80V112H272V80H240zM70.96 250.7C62.12 235.4 67.37 215.8 82.67 206.1L138.1 174.1C153.4 166.1 172.1 171.4 181.8 186.7L213.8 242.1C222.6 257.4 217.4 276.1 202.1 285.8L146.7 317.8C131.4 326.6 111.8 321.4 102.1 306.1L70.96 250.7zM164.2 252.2L148.2 224.5L120.5 240.5L136.5 268.2L164.2 252.2zM256 224C256 206.3 270.3 192 288 192H352C369.7 192 384 206.3 384 224V288C384 305.7 369.7 320 352 320H288C270.3 320 256 305.7 256 288V224zM336 272V240H304V272H336zM320 384C320 366.3 334.3 352 352 352H416C433.7 352 448 366.3 448 384V448C448 465.7 433.7 480 416 480H352C334.3 480 320 465.7 320 448V384zM400 432V400H368V432H400zM256 352C273.7 352 288 366.3 288 384V448C288 465.7 273.7 480 256 480H192C174.3 480 160 465.7 160 448V384C160 366.3 174.3 352 192 352H256zM208 400V432H240V400H208zM0 384C0 366.3 14.33 352 32 352H96C113.7 352 128 366.3 128 384V448C128 465.7 113.7 480 96 480H32C14.33 480 0 465.7 0 448V384zM80 432V400H48V432H80z"/></svg>
